X:1
T:The John Maclean March
M:4/4
L:1/8
K:A
 z4 z2 E2| C2 C3/2 B,/2 C A,2 E| A3/2 A/2 A3/2 A/2 F D2 A| B2 B3/2 A/2 G3/2 E/2 FG|\
 A2 F3/2 F/2 E3 D| C2 C3/2 B,/2 C A,2 E| A2 c3/2 B/2 AA, CE| D2 FA E2 CA,|\
 B,2 A,3/2 A,/2 A,2 z2|
